src/assets/images/icons/star-s-line.svg

<svg width="24" height="24" viewBox="0 0 24 24" fill="none" xmlns="http://www.w3.org/2000/svg">
<g clip-path="url(#clip0_58_16376)">
<path d="M12 17L6.12199 20.59L7.71999 13.89L2.48999 9.41L9.35499 8.86L12 2.5L14.645 8.86L21.511 9.41L16.28 13.89L17.878 20.59L12 17ZM12 14.656L14.817 16.376L14.051 13.166L16.558 11.019L13.268 10.755L12 7.708L10.732 10.755L7.44199 11.019L9.94899 13.166L9.18299 16.376L12 14.657V14.656Z" fill="#181D27"/>
</g>
<defs>
<clipPath id="clip0_58_16376">
<rect width="24" height="24" fill="white"/>
</clipPath>
</defs>
</svg>

<svg xmlns="http://www.w3.org/2000/svg" width="24" height="24" fill="none" viewBox="0 0 24 24"><g clip-path="url(#a)"><path fill="#181d27" d="m12 17-5.878 3.59 1.598-6.7-5.23-4.48 6.865-.55L12 2.5l2.645 6.36 6.866.55-5.231 4.48 1.598 6.7zm0-2.344 2.817 1.72-.766-3.21 2.507-2.147-3.29-.264L12 7.708l-1.268 3.047-3.29.264 2.507 2.147-.766 3.21z"/></g><defs><clipPath id="a"><path fill="#fff" d="M0 0h24v24H0z"/></clipPath></defs></svg>
